X:1
T:Title
L:1/8
Q:1/4=120
M:6/8
K:D
V:1 treble nm="Church Organ, Staff"
V:1
 D2 A A2 G | =F3 G3 | A2 G =F2 E | =F2 E D2 C | D2 A A2 G | =F3 .G3 | A2 G =F2 E | D6 | %8
w: By~Old~French * * *||||||||
 =f2 e d2 c | d3 A3 | =f2 e d2 c | d3 A2 =c | ^A2 G =A2 E | A2 D =F2 G | A2 A c2 c | d6 | %16
w: ||||||||
 =f2 e d2 c | d3 A3 | =f2 e d2 c | d3 A2 =c | ^A2 G =A2 E | =F2 D F2 G | A2 A =F2 E | D6 |] %24
w: ||||||||

